library/css/icons/svgs/fi-page-multiple.svg

<svg xmlns="http://www.w3.org/2000/svg" width="100" height="100" viewBox="0 0 100 100"><path d="M86.45 23.27h-3.475v66.91c0 .835-.677 1.513-1.513 1.513h-49.475v3.475c0 .836.677 1.513 1.513 1.513h52.951c.836 0 1.513-.677 1.513-1.513v-70.386c-.001-.836-.678-1.512-1.514-1.512zM77.988 85.193v-70.386c0-.836-.677-1.513-1.513-1.513h-3.475v66.911c0 .836-.677 1.513-1.513 1.513h-49.476v3.475c0 .836.677 1.513 1.513 1.513h52.951c.836 0 1.513-.677 1.513-1.513zM68.013 75.218v-70.386c0-.836-.677-1.513-1.513-1.513h-52.95c-.836 0-1.513.677-1.513 1.513v70.386c0 .836.677 1.513 1.513 1.513h52.95c.836 0 1.513-.677 1.513-1.513z"/></svg>

<?xml version="1.0" encoding="utf-8"?>
<!-- Generator: Adobe Illustrator 17.0.0, SVG Export Plug-In . SVG Version: 6.00 Build 0)  -->
<!DOCTYPE svg PUBLIC "-//W3C//DTD SVG 1.1//EN" "http://www.w3.org/Graphics/SVG/1.1/DTD/svg11.dtd">
<svg version="1.1" id="Layer_1" xmlns="http://www.w3.org/2000/svg" xmlns:xlink="http://www.w3.org/1999/xlink" x="0px" y="0px"
	 width="100px" height="100px" viewBox="0 0 100 100" enable-background="new 0 0 100 100" xml:space="preserve">
<g>
	<path d="M86.45,23.27h-3.475V90.18c0,0.835-0.677,1.513-1.513,1.513H31.987v3.475c0,0.836,0.677,1.513,1.513,1.513l0.001,0v0h52.95
		c0.836,0,1.513-0.677,1.513-1.513V24.782C87.963,23.946,87.286,23.27,86.45,23.27z"/>
	<path d="M77.988,85.193V14.807c0-0.836-0.677-1.513-1.513-1.513h-3.475v66.911c0,0.836-0.677,1.513-1.513,1.513H22.011v3.475
		c0,0.836,0.677,1.513,1.513,1.513c0,0,0,0,0,0h52.951C77.311,86.706,77.988,86.029,77.988,85.193z"/>
	<path d="M68.013,75.218V4.832c0-0.836-0.677-1.513-1.513-1.513H13.55c-0.836,0-1.513,0.677-1.513,1.513v70.386
		c0,0.836,0.677,1.513,1.513,1.513H66.5C67.336,76.731,68.013,76.054,68.013,75.218z"/>
</g>
</svg>
